X: 104
T:Duke of Bellug's() Quickstep. JaW.104
M:6/8
L:1/8
Q:110
S:James Winder Ms, Lancashire, 1835-41
R:Quickstep
O:England
A:Wyresdale,Lancashire
H:1/8
Z:vmp.Chris Partington, Aug 2004
K:G
G/B/|ded ded|g2G GFG|ABA ABc|d2c BAG|!
ded ded|g2G GFG|ABc BcA|(A3G2):|!
|d|A2d A2d|B2d gab|agf edc|Bcd d2B|!
A2d A2d|Bcd efg|aba fge|ded cBA|!
ded ded|g2G GFG|ABA ABc|d2c BAG|!
ded ded|g2G GFG|ABc BcA|(A3G2)|]
